Adwaita++/actions/symbolic/media-seek-backward-symbolic.svg

<svg height="16" width="16" xmlns="http://www.w3.org/2000/svg">
  <g fill="#474747">
    <path d="m6.97 4a1 1 0 0 0 -.484.143l-5 3a1 1 0 0 0 0 1.714l5 3a1 1 0 0 0 1.514-.857v-6a1 1 0 0 0 -1.03-1zm-.97 2.766v2.468l-2.057-1.234z"/>
    <path d="m7 11h1v1h-1zm0-7h1v1h-1z"/>
    <path d="m13.97 4a1 1 0 0 0 -.484.143l-5 3a1 1 0 0 0 0 1.714l5 3a1 1 0 0 0 1.514-.857v-6a1 1 0 0 0 -1.03-1zm-.97 2.766v2.468l-2.057-1.234z"/>
    <path d="m14 11h1v1h-1zm0-7h1v1h-1zm-7 1-5 3 5 3zm7 0-5 3 5 3z"/>
  </g>
</svg>

<svg xmlns="http://www.w3.org/2000/svg" width="16" height="16">
    <g color="#000" fill="#474747">
        <path d="M6.97 4a1 1 0 0 0-.484.143l-5 3a1 1 0 0 0 0 1.714l5 3A1 1 0 0 0 8 11V5a1 1 0 0 0-1.03-1zM6 6.766v2.468L3.943 8z" style="line-height:normal;font-variant-ligatures:normal;font-variant-position:normal;font-variant-caps:normal;font-variant-numeric:normal;font-variant-alternates:normal;font-feature-settings:normal;text-indent:0;text-align:start;text-decoration-line:none;text-decoration-style:solid;text-decoration-color:#000;text-transform:none;text-orientation:mixed;shape-padding:0;isolation:auto;mix-blend-mode:normal;marker:none" font-weight="400" font-family="sans-serif" white-space="normal" overflow="visible"/>
        <path d="M7 11h1v1H7zM7 4h1v1H7z" style="marker:none" overflow="visible"/>
        <path d="M13.97 4a1 1 0 0 0-.484.143l-5 3a1 1 0 0 0 0 1.714l5 3A1 1 0 0 0 15 11V5a1 1 0 0 0-1.03-1zM13 6.766v2.468L10.943 8z" style="line-height:normal;font-variant-ligatures:normal;font-variant-position:normal;font-variant-caps:normal;font-variant-numeric:normal;font-variant-alternates:normal;font-feature-settings:normal;text-indent:0;text-align:start;text-decoration-line:none;text-decoration-style:solid;text-decoration-color:#000;text-transform:none;text-orientation:mixed;shape-padding:0;isolation:auto;mix-blend-mode:normal;marker:none" font-weight="400" font-family="sans-serif" white-space="normal" overflow="visible"/>
        <path d="M14 11h1v1h-1zM14 4h1v1h-1zM7 5L2 8l5 3zM14 5L9 8l5 3z" style="marker:none" overflow="visible"/>
    </g>
</svg>
